Sources/FrostedUI/Resources/Icons.xcassets/profileCircle12.imageset/profile-circle-12.svg

<svg width="12" height="12" viewBox="0 0 12 12" fill="none" xmlns="http://www.w3.org/2000/svg" data-fui-icon="true">
  <g clip-path="url(#clip0_882_1424)">
    <path
      d="M6 0C9.31371 0 12 2.68629 12 6C12 7.81797 11.1902 9.44559 9.91309 10.5459C9.90421 10.5542 9.89604 10.5634 9.88672 10.5713C9.87209 10.5837 9.85654 10.5951 9.8418 10.6074C9.81888 10.6265 9.79566 10.6453 9.77246 10.6641C9.72236 10.7046 9.67153 10.7442 9.62012 10.7832C9.59749 10.8004 9.57463 10.8172 9.55176 10.834C9.50273 10.8701 9.45348 10.9058 9.40332 10.9404C9.37516 10.9599 9.34686 10.9791 9.31836 10.998C9.27582 11.0263 9.23275 11.0538 9.18945 11.0811C9.14679 11.1079 9.10392 11.1344 9.06055 11.1602C9.03185 11.1772 9.00264 11.1934 8.97363 11.21C8.92886 11.2356 8.88435 11.2617 8.83887 11.2861C8.67775 11.3728 8.51231 11.4524 8.34277 11.5244C8.2983 11.5433 8.25303 11.5603 8.20801 11.5781C8.17161 11.5925 8.13537 11.6074 8.09863 11.6211C8.04151 11.6424 7.98371 11.662 7.92578 11.6816C7.89587 11.6918 7.86606 11.7022 7.83594 11.7119C7.7903 11.7266 7.74435 11.7403 7.69824 11.7539C7.6486 11.7685 7.599 11.7835 7.54883 11.7969C7.50509 11.8085 7.46111 11.8194 7.41699 11.8301C7.37032 11.8414 7.32346 11.8521 7.27637 11.8623C7.2381 11.8706 7.19967 11.8782 7.16113 11.8857C7.09992 11.8978 7.03842 11.9088 6.97656 11.9189C6.9418 11.9246 6.90703 11.9305 6.87207 11.9355C6.80246 11.9457 6.73247 11.9542 6.66211 11.9619C6.64126 11.9642 6.62052 11.9677 6.59961 11.9697C6.51162 11.9785 6.42304 11.9844 6.33398 11.9893C6.32355 11.9898 6.31318 11.9917 6.30273 11.9922C6.20244 11.9972 6.10152 12 6 12C5.89815 12 5.7969 11.9972 5.69629 11.9922C5.68584 11.9917 5.67547 11.9898 5.66504 11.9893C5.57598 11.9843 5.48741 11.9785 5.39941 11.9697C5.3785 11.9676 5.35776 11.9642 5.33691 11.9619C5.26656 11.9542 5.19656 11.9457 5.12695 11.9355C5.09199 11.9304 5.05722 11.9246 5.02246 11.9189C4.9606 11.9088 4.8991 11.8978 4.83789 11.8857C4.79936 11.8782 4.76092 11.8706 4.72266 11.8623C4.6765 11.8523 4.63072 11.8412 4.58496 11.8301C4.53821 11.8188 4.49163 11.8073 4.44531 11.7949C4.40014 11.7828 4.35529 11.77 4.31055 11.7568C4.26085 11.7423 4.21127 11.7277 4.16211 11.7119C4.13229 11.7023 4.10286 11.6917 4.07324 11.6816C4.01532 11.662 3.95751 11.6424 3.90039 11.6211C3.86366 11.6074 3.82741 11.5925 3.79102 11.5781C3.746 11.5603 3.70072 11.5433 3.65625 11.5244C3.48674 11.4524 3.32125 11.3728 3.16016 11.2861C3.11468 11.2617 3.07015 11.2356 3.02539 11.21C2.99639 11.1934 2.96717 11.1772 2.93848 11.1602C2.89511 11.1344 2.85222 11.1079 2.80957 11.0811C2.76628 11.0538 2.7232 11.0263 2.68066 10.998C2.65216 10.9791 2.62386 10.9599 2.5957 10.9404C2.54556 10.9058 2.49629 10.8701 2.44727 10.834C2.4244 10.8171 2.40153 10.8004 2.37891 10.7832C2.3275 10.7442 2.27665 10.7046 2.22656 10.6641C2.20337 10.6453 2.18013 10.6265 2.15723 10.6074C2.14268 10.5953 2.12771 10.5836 2.11328 10.5713C2.10378 10.5632 2.09498 10.5544 2.08594 10.5459C0.809173 9.4456 0 7.8177 0 6C0 2.68629 2.68629 0 6 0ZM6 9.5C5.25618 9.5 4.55517 9.67987 3.9375 9.99902C4.18607 10.1275 4.44781 10.2337 4.7207 10.3145C4.75603 10.3249 4.79146 10.3351 4.82715 10.3447C4.86369 10.3546 4.9006 10.3631 4.9375 10.3721C4.97482 10.3811 5.01213 10.3903 5.0498 10.3984C5.07381 10.4036 5.09792 10.4083 5.12207 10.4131C5.16739 10.422 5.21298 10.4299 5.25879 10.4375C5.2919 10.443 5.32505 10.4484 5.3584 10.4531C5.3957 10.4584 5.43311 10.4634 5.4707 10.4678C5.49929 10.4711 5.52789 10.4747 5.55664 10.4775C5.60589 10.4823 5.65537 10.486 5.70508 10.4893C5.7314 10.491 5.75774 10.4929 5.78418 10.4941C5.8557 10.4975 5.92763 10.5 6 10.5C6.09911 10.5 6.1974 10.4956 6.29492 10.4893C6.34431 10.4861 6.39345 10.4823 6.44238 10.4775C6.47114 10.4747 6.49973 10.4711 6.52832 10.4678C6.56592 10.4634 6.60332 10.4584 6.64062 10.4531C6.67397 10.4484 6.70712 10.443 6.74023 10.4375C6.78604 10.4299 6.83163 10.422 6.87695 10.4131C6.9011 10.4083 6.92521 10.4036 6.94922 10.3984C6.9869 10.3904 7.0242 10.3811 7.06152 10.3721C7.09843 10.3631 7.13533 10.3546 7.17188 10.3447C7.20787 10.335 7.24367 10.325 7.2793 10.3145C7.50778 10.2468 7.72869 10.1619 7.94043 10.0605C7.96316 10.0497 7.98529 10.0376 8.00781 10.0264C8.0258 10.0174 8.04367 10.0082 8.06152 9.99902C7.44404 9.68013 6.74351 9.5 6 9.5ZM6 1.5C3.51472 1.5 1.5 3.51472 1.5 6C1.5 7.16015 1.93917 8.21763 2.66016 9.01562C3.61492 8.3748 4.76424 8 6 8C7.23546 8 8.38424 8.37508 9.33887 9.01562C10.0601 8.21757 10.5 7.16039 10.5 6C10.5 3.51472 8.48528 1.5 6 1.5ZM6 2.5C7.38071 2.5 8.5 3.61929 8.5 5C8.5 6.38071 7.38071 7.5 6 7.5C4.61929 7.5 3.5 6.38071 3.5 5C3.5 3.61929 4.61929 2.5 6 2.5ZM6 4C5.44772 4 5 4.44772 5 5C5 5.55228 5.44772 6 6 6C6.55228 6 7 5.55228 7 5C7 4.44772 6.55228 4 6 4Z"
      fill="currentColor"
    />
  </g>
  <defs>
    <clipPath id="clip0_882_1424"><path fill="currentColor" d="M0 0H12V12H0z" /></clipPath>
  </defs>
</svg>

<svg xmlns="http://www.w3.org/2000/svg" width="12" height="12" fill="none" data-fui-icon="true" viewBox="0 0 12 12"><g clip-path="url(#a)"><path fill="currentColor" d="M6 0a6 6 0 0 1 3.913 10.546l-.026.025-.045.036-.07.057a6 6 0 0 1-.711.496l-.087.05q-.067.04-.135.076a6 6 0 0 1-.496.238q-.068.028-.135.054-.054.022-.11.043-.084.032-.172.06l-.09.03-.138.043q-.074.022-.15.043a6 6 0 0 1-.571.122l-.105.016-.21.027-.062.008a6 6 0 0 1-.266.02l-.031.002a6 6 0 0 1-.607 0l-.031-.003a6 6 0 0 1-.266-.02q-.03-.003-.062-.007l-.21-.027-.105-.016a6 6 0 0 1-.711-.162l-.149-.045-.089-.03-.173-.06-.109-.044-.135-.054a6 6 0 0 1-.496-.238q-.067-.037-.135-.076l-.087-.05a6 6 0 0 1-.49-.326l-.07-.05-.151-.12-.07-.057q-.022-.017-.044-.036l-.027-.025A6 6 0 0 1 6 0m0 9.5c-.744 0-1.445.18-2.062.499a4.5 4.5 0 0 0 .89.346q.054.014.11.027.055.014.112.026l.072.015a5 5 0 0 0 .349.055l.086.01.148.011.08.005a4.5 4.5 0 0 0 .657-.017q.044-.004.086-.01a5 5 0 0 0 .349-.054l.072-.015.113-.026.11-.027.107-.03a4.5 4.5 0 0 0 .661-.255q.034-.015.068-.034L8.062 10A4.5 4.5 0 0 0 6 9.5m0-8a4.5 4.5 0 0 0-3.34 7.516A5.97 5.97 0 0 1 6 8c1.235 0 2.384.375 3.339 1.016A4.5 4.5 0 0 0 6 1.5m0 1a2.5 2.5 0 1 1 0 5 2.5 2.5 0 0 1 0-5M6 4a1 1 0 1 0 0 2 1 1 0 0 0 0-2"/></g><defs><clipPath id="a"><path fill="currentColor" d="M0 0h12v12H0z"/></clipPath></defs></svg>
